!!! OTL: Berkowitz532
!!! Chapter: 1
!!! Section: IV
!!! Page: 133
!!! Mode: 
!!! Encoder: DJB
**kern
*staff1
*I"Piano
=1-
*clefC3
*k[]
*C:
*M2/4
4r
8r
8G/
=2
8.c\L
16d\Jk
8e\L
8f\J
=3
8g\L
8cc\J
4g\
=4
8c\L
8e-\J
4a-\
=5
8c\L
8e\J
4g\
=6
8.f#\L
16g\Jk
8a\L
8f#\J
=7
8g\L
8d\J
4B/
=8
8c\L
8e-\J
16d/LL
16c/
16B/
16A/JJ
=9
4G/
8r
8G/
=10
8.c\L
16d\Jk
8e-\L
8f\J
=11
8g\L
8a-\J
4g\
=12
!!linebreak:original
8c\L
8e\J
8g\L
8cc\J
=13
8b\L
8a\J
4g\
=14
8a-\L
8g\J
4f\
=15
8a-\L
8e-\J
4c\
=16
8g\L
8G\J
8A/L
8B/J
=17
8c\
8r
8r
8e-\
=18
8c\
8r
8e\
8r
=19
4c\
4r
==
*-
